icons/bhi_add-file.svg

<svg xmlns="http://www.w3.org/2000/svg" viewBox="0 0 512 512" enable-background="new 0 0 512 512"><path fill="#010101" d="M205.3 32l51.3 64h205.4c28.3 0 51.3 10.3 51.3 38.7v262c0 28.3-23 51.3-51.3 51.3h-410.7c-28.5 0-51.3-23.1-51.3-51.3v-313.4c0-28.5 22.8-51.3 51.3-51.3h154m128.3 128.3v77h-77v51.3h77v77h51.4v-77h77v-51.3h-77v-77h-51.4z"/></svg>

<?xml version="1.0" encoding="utf-8"?>
<!-- Generator: Adobe Illustrator 19.2.0, SVG Export Plug-In . SVG Version: 6.00 Build 0)  -->
<svg version="1.1" id="Layer_1" xmlns="http://www.w3.org/2000/svg" xmlns:xlink="http://www.w3.org/1999/xlink" x="0px" y="0px"
	 viewBox="0 0 512 512" enable-background="new 0 0 512 512" xml:space="preserve">
<path fill="#010101" d="M205.3,32l51.3,64H462c28.3,0,51.3,10.3,51.3,38.7v262c0,28.3-23,51.3-51.3,51.3H51.3
	C22.8,448,0,424.9,0,396.7V83.3C0,54.8,22.8,32,51.3,32H205.3 M333.6,160.3v77h-77v51.3h77v77H385v-77h77v-51.3h-77v-77H333.6z"/>
</svg>
